!!!OTL: Exultet
!!!SMS: Farfa, Biblioteca dell' Abbazia, ms. AF. 338 Musica XI and Trento, Biblioteca Musicale <i>L. Feininger</i>, FC 135
!!!EFL: 24/28
**kern	**text
*	*
*staff6	*staff6
!F.T. Vulg	!F.T. Vulg
*clefGv2	*
*k[b-]	*
=1--	=1--
1ryy	.
.	.
.	.
.	.
.	.
.	.
.	.
.	.
=2-	=2-
1ryy	.
.	.
.	.
.	.
.	.
.	.
.	.
.	.
=3-	=3-
1ryy	.
.	.
.	.
.	.
.	.
.	.
.	.
.	.
=4-	=4-
1ryy	.
.	.
.	.
.	.
=5-	=5-
1ryy	.
.	.
.	.
.	.
.	.
.	.
=6-	=6-
1ryy	.
.	.
.	.
.	.
.	.
.	.
=7-	=7-
1ryy	.
.	.
.	.
.	.
.	.
.	.
.	.
.	.
.	.
.	.
=8-	=8-
1ryy	.
.	.
.	.
.	.
.	.
.	.
.	.
.	.
.	.
.	.
.	.
.	.
=9-	=9-
1ryy	.
.	.
.	.
.	.
.	.
.	.
.	.
.	.
.	.
.	.
.	.
.	.
.	.
.	.
=10-	=10-
1ryy	.
.	.
.	.
.	.
.	.
.	.
.	.
.	.
.	.
.	.
.	.
=11-	=11-
1ryy	.
.	.
.	.
.	.
.	.
.	.
.	.
.	.
.	.
=12-	=12-
1ryy	.
.	.
.	.
.	.
.	.
.	.
.	.
.	.
=13-	=13-
1ryy	.
.	.
.	.
.	.
.	.
.	.
.	.
=14-	=14-
1ryy	.
.	.
.	.
.	.
.	.
.	.
.	.
.	.
=15-	=15-
1ryy	.
.	.
.	.
.	.
.	.
.	.
.	.
=16-	=16-
1ryy	.
.	.
.	.
.	.
.	.
.	.
.	.
.	.
.	.
=17-	=17-
1ryy	.
.	.
.	.
.	.
.	.
.	.
.	.
.	.
.	.
.	.
.	.
.	.
.	.
.	.
=18-	=18-
1ryy	.
.	.
.	.
.	.
.	.
.	.
.	.
.	.
.	.
.	.
.	.
.	.
.	.
=19-	=19-
1ryy	.
.	.
.	.
.	.
.	.
.	.
.	.
.	.
.	.
.	.
.	.
.	.
.	.
=20-	=20-
1ryy	.
.	.
.	.
.	.
.	.
.	.
.	.
.	.
.	.
.	.
.	.
=21-	=21-
1ryy	.
.	.
.	.
.	.
.	.
.	.
.	.
.	.
.	.
.	.
.	.
.	.
.	.
.	.
.	.
.	.
=22-	=22-
1ryy	.
.	.
.	.
.	.
.	.
.	.
.	.
.	.
.	.
.	.
.	.
.	.
=23-	=23-
1ryy	.
.	.
.	.
.	.
.	.
.	.
.	.
.	.
.	.
.	.
.	.
.	.
=24-	=24-
1ryy	.
.	.
.	.
.	.
.	.
.	.
.	.
.	.
.	.
.	.
.	.
.	.
.	.
.	.
.	.
=25-	=25-
1ryy	.
.	.
.	.
.	.
.	.
.	.
.	.
.	.
.	.
=26-	=26-
1ryy	.
.	.
.	.
.	.
.	.
.	.
.	.
.	.
.	.
=27-	=27-
1ryy	.
.	.
.	.
.	.
.	.
.	.
=28-	=28-
1ryy	.
.	.
.	.
.	.
.	.
.	.
=29-	=29-
1ryy	.
.	.
.	.
.	.
.	.
.	.
.	.
.	.
.	.
.	.
.	.
.	.
.	.
.	.
=30-	=30-
1ryy	.
.	.
.	.
.	.
.	.
.	.
.	.
.	.
.	.
.	.
.	.
.	.
=31-	=31-
1ryy	.
.	.
.	.
.	.
.	.
.	.
.	.
.	.
.	.
.	.
.	.
.	.
.	.
.	.
.	.
.	.
=32-	=32-
1ryy	.
.	.
.	.
.	.
.	.
.	.
.	.
.	.
.	.
.	.
.	.
.	.
.	.
.	.
.	.
=33-	=33-
1ryy	.
.	.
.	.
.	.
.	.
.	.
.	.
.	.
.	.
.	.
.	.
.	.
.	.
.	.
=34-	=34-
1ryy	.
.	.
.	.
.	.
.	.
.	.
.	.
.	.
.	.
.	.
.	.
.	.
.	.
.	.
.	.
.	.
=35-	=35-
1ryy	.
.	.
.	.
.	.
.	.
.	.
.	.
.	.
.	.
.	.
.	.
.	.
.	.
.	.
.	.
.	.
=36-	=36-
1ryy	.
.	.
.	.
.	.
.	.
.	.
.	.
.	.
.	.
.	.
.	.
.	.
.	.
.	.
.	.
.	.
=37-	=37-
1ryy	.
.	.
.	.
.	.
.	.
.	.
.	.
.	.
=38-	=38-
1ryy	.
.	.
.	.
.	.
.	.
.	.
.	.
=39-	=39-
1ryy	.
.	.
.	.
.	.
.	.
.	.
.	.
.	.
=40-	=40-
1ryy	.
.	.
.	.
.	.
.	.
.	.
.	.
=41-	=41-
1ryy	.
.	.
.	.
.	.
.	.
.	.
.	.
.	.
.	.
.	.
.	.
.	.
.	.
.	.
.	.
=42-	=42-
1ryy	.
.	.
.	.
.	.
.	.
.	.
.	.
.	.
.	.
.	.
.	.
.	.
.	.
.	.
.	.
.	.
=43-	=43-
1ryy	.
.	.
.	.
.	.
.	.
.	.
.	.
.	.
.	.
=44-	=44-
1ryy	.
.	.
.	.
.	.
.	.
.	.
.	.
.	.
=45-	=45-
1ryy	.
.	.
.	.
.	.
.	.
.	.
.	.
.	.
=46-	=46-
1ryy	.
.	.
.	.
.	.
.	.
.	.
.	.
.	.
.	.
.	.
=47-	=47-
1ryy	.
.	.
.	.
.	.
.	.
.	.
.	.
.	.
.	.
.	.
.	.
.	.
.	.
.	.
.	.
.	.
=48-	=48-
1ryy	.
.	.
.	.
.	.
.	.
.	.
.	.
.	.
.	.
.	.
.	.
.	.
.	.
.	.
.	.
.	.
=49-	=49-
1ryy	.
.	.
.	.
.	.
.	.
.	.
.	.
.	.
.	.
.	.
=50-	=50-
1ryy	.
.	.
.	.
.	.
.	.
.	.
.	.
.	.
.	.
.	.
.	.
.	.
=51-	=51-
1ryy	.
.	.
.	.
.	.
.	.
.	.
.	.
.	.
=52-	=52-
1ryy	.
.	.
.	.
.	.
.	.
.	.
.	.
.	.
.	.
.	.
.	.
=53-	=53-
1ryy	.
.	.
.	.
.	.
.	.
.	.
.	.
.	.
.	.
.	.
.	.
=54-	=54-
1ryy	.
.	.
.	.
.	.
.	.
.	.
.	.
.	.
=55-	=55-
1ryy	.
.	.
.	.
.	.
.	.
.	.
.	.
.	.
.	.
.	.
.	.
.	.
.	.
.	.
=56-	=56-
1ryy	.
.	.
.	.
.	.
.	.
.	.
.	.
.	.
.	.
.	.
.	.
.	.
.	.
.	.
.	.
.	.
=57-	=57-
1ryy	.
.	.
.	.
.	.
.	.
.	.
.	.
.	.
=58-	=58-
1ryy	.
.	.
.	.
.	.
.	.
.	.
.	.
.	.
.	.
.	.
.	.
.	.
.	.
.	.
.	.
.	.
=59-	=59-
1ryy	.
.	.
.	.
.	.
.	.
.	.
.	.
.	.
.	.
.	.
.	.
.	.
.	.
.	.
.	.
.	.
.	.
.	.
.	.
.	.
.	.
=60-	=60-
1ryy	.
.	.
.	.
.	.
.	.
.	.
.	.
.	.
.	.
.	.
.	.
.	.
.	.
.	.
.	.
.	.
=61-	=61-
1ryy	.
.	.
.	.
.	.
.	.
.	.
.	.
.	.
.	.
.	.
.	.
.	.
.	.
.	.
=62-	=62-
1ryy	.
.	.
.	.
.	.
.	.
.	.
.	.
.	.
.	.
.	.
.	.
.	.
.	.
.	.
.	.
=63-	=63-
1ryy	.
.	.
.	.
.	.
.	.
.	.
.	.
.	.
.	.
.	.
.	.
=64-	=64-
1ryy	.
.	.
.	.
.	.
.	.
.	.
.	.
.	.
.	.
.	.
.	.
.	.
=65-	=65-
1ryy	.
.	.
.	.
.	.
.	.
.	.
.	.
.	.
.	.
.	.
.	.
.	.
=66-	=66-
1ryy	.
.	.
.	.
.	.
.	.
.	.
.	.
.	.
.	.
.	.
.	.
.	.
.	.
=67-	=67-
1ryy	.
.	.
.	.
.	.
.	.
.	.
.	.
.	.
.	.
.	.
.	.
.	.
.	.
.	.
.	.
.	.
=68-	=68-
1ryy	.
.	.
.	.
.	.
.	.
.	.
.	.
.	.
.	.
.	.
.	.
.	.
.	.
.	.
.	.
.	.
=69-	=69-
1ryy	.
.	.
.	.
.	.
.	.
.	.
.	.
.	.
.	.
.	.
.	.
.	.
=70-	=70-
1ryy	.
.	.
.	.
.	.
.	.
.	.
.	.
.	.
.	.
.	.
.	.
=71-	=71-
1ryy	.
.	.
.	.
.	.
.	.
.	.
.	.
.	.
=72-	=72-
1ryy	.
.	.
.	.
.	.
.	.
.	.
.	.
=73-	=73-
1ryy	.
.	.
.	.
.	.
.	.
.	.
.	.
.	.
.	.
=74-	=74-
1ryy	.
.	.
.	.
.	.
.	.
.	.
.	.
.	.
.	.
.	.
.	.
=75-	=75-
1ryy	.
.	.
.	.
.	.
.	.
.	.
.	.
.	.
=76-	=76-
1ryy	.
.	.
.	.
.	.
.	.
.	.
.	.
.	.
.	.
.	.
.	.
.	.
=77-	=77-
1ryy	.
.	.
.	.
.	.
.	.
.	.
.	.
.	.
=78-	=78-
1ryy	.
.	.
.	.
.	.
.	.
.	.
.	.
.	.
=79-	=79-
1ryy	.
.	.
.	.
.	.
.	.
.	.
.	.
.	.
=80-	=80-
1ryy	.
.	.
.	.
.	.
.	.
.	.
.	.
.	.
.	.
.	.
.	.
.	.
.	.
.	.
.	.
.	.
=81-	=81-
1ryy	.
.	.
.	.
.	.
.	.
.	.
.	.
.	.
.	.
.	.
.	.
.	.
.	.
.	.
.	.
.	.
=82-	=82-
1ryy	.
.	.
.	.
.	.
.	.
.	.
.	.
.	.
.	.
=83-	=83-
1ryy	.
.	.
.	.
.	.
.	.
.	.
.	.
.	.
.	.
.	.
.	.
.	.
.	.
=84-	=84-
1ryy	.
.	.
.	.
.	.
.	.
.	.
.	.
.	.
.	.
.	.
.	.
=85-	=85-
1ryy	.
.	.
.	.
.	.
.	.
=86-	=86-
1ryy	.
.	.
.	.
.	.
.	.
.	.
.	.
.	.
=87-	=87-
1ryy	.
.	.
.	.
.	.
.	.
.	.
.	.
.	.
=88-	=88-
1ryy	.
.	.
.	.
.	.
.	.
.	.
.	.
.	.
.	.
=89-	=89-
1ryy	.
.	.
.	.
.	.
.	.
.	.
.	.
.	.
.	.
.	.
.	.
=90-	=90-
1ryy	.
.	.
.	.
.	.
.	.
.	.
.	.
.	.
=91-	=91-
1ryy	.
.	.
.	.
.	.
.	.
.	.
.	.
.	.
.	.
.	.
.	.
.	.
.	.
.	.
.	.
.	.
.	.
.	.
.	.
=92-	=92-
1ryy	.
.	.
.	.
.	.
.	.
.	.
.	.
.	.
.	.
.	.
.	.
.	.
.	.
.	.
.	.
.	.
=93-	=93-
1ryy	.
.	.
.	.
.	.
.	.
.	.
.	.
.	.
.	.
.	.
.	.
.	.
.	.
.	.
.	.
.	.
.	.
.	.
.	.
.	.
.	.
.	.
.	.
.	.
.	.
.	.
.	.
.	.
.	.
.	.
.	.
=94-	=94-
1ryy	.
.	.
.	.
.	.
.	.
.	.
.	.
.	.
.	.
.	.
.	.
.	.
.	.
.	.
.	.
.	.
=95-	=95-
1ryy	.
.	.
.	.
.	.
.	.
.	.
.	.
.	.
.	.
.	.
.	.
.	.
.	.
.	.
=96-	=96-
1ryy	.
.	.
.	.
.	.
.	.
.	.
.	.
.	.
.	.
=97-	=97-
1ryy	.
.	.
.	.
.	.
.	.
.	.
.	.
.	.
.	.
.	.
.	.
.	.
=98-	=98-
1ryy	.
.	.
.	.
.	.
.	.
.	.
.	.
.	.
.	.
.	.
.	.
.	.
=99-	=99-
1ryy	.
.	.
.	.
.	.
.	.
.	.
.	.
.	.
.	.
.	.
.	.
.	.
.	.
=100-	=100-
1ryy	.
.	.
.	.
.	.
.	.
.	.
.	.
.	.
.	.
.	.
=101-	=101-
1ryy	.
.	.
.	.
.	.
.	.
.	.
.	.
.	.
.	.
.	.
.	.
.	.
.	.
.	.
=102-	=102-
1ryy	.
.	.
.	.
.	.
.	.
.	.
.	.
.	.
.	.
.	.
.	.
.	.
=103-	=103-
1ryy	.
.	.
.	.
.	.
.	.
.	.
.	.
.	.
.	.
.	.
.	.
.	.
.	.
.	.
.	.
.	.
=104-	=104-
1ryy	.
.	.
.	.
.	.
.	.
.	.
.	.
.	.
.	.
.	.
.	.
.	.
.	.
.	.
=105-	=105-
1ryy	.
.	.
.	.
.	.
.	.
.	.
.	.
.	.
.	.
.	.
.	.
.	.
.	.
.	.
=106-	=106-
1ryy	.
.	.
.	.
.	.
.	.
.	.
.	.
.	.
.	.
.	.
=107-	=107-
1ryy	.
.	.
.	.
.	.
.	.
.	.
.	.
.	.
.	.
.	.
.	.
=108-	=108-
1ryy	.
.	.
.	.
.	.
.	.
.	.
.	.
.	.
.	.
.	.
.	.
.	.
.	.
.	.
=109-	=109-
1ryy	.
.	.
.	.
.	.
.	.
.	.
.	.
.	.
.	.
.	.
=110-	=110-
1ryy	.
.	.
.	.
.	.
.	.
.	.
.	.
.	.
.	.
.	.
.	.
.	.
=111-	=111-
1ryy	.
.	.
.	.
.	.
.	.
.	.
.	.
.	.
.	.
.	.
.	.
.	.
.	.
.	.
.	.
.	.
=112-	=112-
1ryy	.
.	.
.	.
.	.
.	.
.	.
.	.
.	.
.	.
.	.
.	.
.	.
.	.
.	.
.	.
=113-	=113-
1ryy	.
.	.
.	.
.	.
.	.
.	.
.	.
.	.
=114-	=114-
1ryy	.
.	.
.	.
.	.
.	.
.	.
.	.
.	.
=115-	=115-
1ryy	.
.	.
.	.
.	.
.	.
.	.
.	.
=116-	=116-
1ryy	.
.	.
.	.
.	.
.	.
.	.
.	.
.	.
.	.
.	.
=117-	=117-
1ryy	.
.	.
.	.
.	.
.	.
.	.
.	.
.	.
.	.
.	.
=118-	=118-
1ryy	.
.	.
.	.
.	.
.	.
.	.
.	.
=119-	=119-
1ryy	.
.	.
.	.
.	.
.	.
.	.
.	.
=120-	=120-
1ryy	.
.	.
.	.
.	.
.	.
.	.
.	.
.	.
=121-	=121-
1ryy	.
.	.
.	.
.	.
.	.
.	.
.	.
.	.
=122-	=122-
1ryy	.
.	.
.	.
.	.
.	.
.	.
.	.
.	.
=123-	=123-
1ryy	.
.	.
.	.
.	.
.	.
.	.
.	.
.	.
=124-	=124-
1ryy	.
.	.
.	.
.	.
.	.
.	.
.	.
.	.
.	.
.	.
=125-	=125-
1ryy	.
.	.
.	.
.	.
.	.
.	.
.	.
.	.
.	.
.	.
.	.
.	.
.	.
.	.
=126-	=126-
1ryy	.
.	.
.	.
.	.
.	.
.	.
.	.
.	.
.	.
.	.
.	.
.	.
.	.
.	.
.	.
.	.
=127-	=127-
1ryy	.
.	.
.	.
.	.
.	.
.	.
.	.
.	.
.	.
.	.
.	.
.	.
.	.
=128-	=128-
1ryy	.
.	.
.	.
.	.
.	.
.	.
.	.
.	.
.	.
.	.
.	.
.	.
=129-	=129-
1ryy	.
.	.
.	.
.	.
.	.
.	.
.	.
.	.
.	.
.	.
.	.
.	.
.	.
.	.
.	.
=130-	=130-
1ryy	.
.	.
.	.
.	.
.	.
.	.
.	.
.	.
.	.
.	.
.	.
.	.
.	.
.	.
.	.
=131-	=131-
1ryy	.
.	.
.	.
.	.
.	.
.	.
.	.
.	.
.	.
.	.
.	.
.	.
.	.
.	.
=132-	=132-
1ryy	.
.	.
.	.
.	.
.	.
.	.
.	.
.	.
.	.
.	.
=133-	=133-
1ryy	.
.	.
.	.
.	.
.	.
.	.
.	.
.	.
=134-	=134-
1ryy	.
.	.
.	.
.	.
.	.
.	.
.	.
.	.
.	.
.	.
.	.
.	.
.	.
.	.
.	.
=135-	=135-
1ryy	.
.	.
.	.
.	.
.	.
.	.
.	.
.	.
.	.
.	.
.	.
=136-	=136-
1ryy	.
.	.
.	.
.	.
.	.
.	.
.	.
.	.
.	.
.	.
.	.
.	.
.	.
.	.
.	.
.	.
=137-	=137-
1ryy	.
.	.
.	.
.	.
.	.
.	.
.	.
.	.
.	.
.	.
.	.
.	.
.	.
.	.
.	.
=138-	=138-
1ryy	.
.	.
.	.
.	.
.	.
.	.
.	.
.	.
.	.
.	.
=139-	=139-
1ryy	.
.	.
.	.
.	.
.	.
.	.
.	.
.	.
.	.
.	.
.	.
=140-	=140-
1ryy	.
.	.
.	.
.	.
.	.
.	.
.	.
.	.
.	.
.	.
.	.
.	.
=141-	=141-
1ryy	.
.	.
.	.
.	.
.	.
.	.
.	.
.	.
=142-	=142-
1ryy	.
.	.
.	.
.	.
.	.
.	.
.	.
.	.
.	.
.	.
.	.
.	.
.	.
=143-	=143-
1ryy	.
.	.
.	.
.	.
.	.
.	.
.	.
.	.
.	.
.	.
.	.
.	.
.	.
=144-	=144-
1ryy	.
.	.
.	.
.	.
.	.
.	.
.	.
.	.
.	.
.	.
.	.
.	.
.	.
=145-	=145-
1ryy	.
.	.
.	.
.	.
.	.
.	.
.	.
.	.
.	.
.	.
=146-	=146-
1ryy	.
.	.
.	.
.	.
.	.
.	.
.	.
.	.
.	.
.	.
.	.
.	.
=147-	=147-
1ryy	.
.	.
.	.
.	.
.	.
.	.
.	.
.	.
.	.
.	.
.	.
.	.
.	.
=148-	=148-
1ryy	.
.	.
.	.
.	.
.	.
.	.
.	.
.	.
.	.
.	.
.	.
.	.
.	.
.	.
.	.
.	.
=149-	=149-
1ryy	.
.	.
.	.
.	.
.	.
.	.
.	.
.	.
.	.
.	.
.	.
=150-	=150-
1ryy	.
.	.
.	.
.	.
.	.
.	.
.	.
.	.
.	.
.	.
.	.
.	.
.	.
.	.
.	.
=151-	=151-
1ryy	.
.	.
.	.
.	.
.	.
.	.
.	.
.	.
.	.
.	.
.	.
=152-	=152-
1ryy	.
.	.
.	.
.	.
.	.
.	.
.	.
.	.
.	.
.	.
.	.
.	.
.	.
=153-	=153-
1ryy	.
.	.
.	.
.	.
.	.
.	.
.	.
.	.
.	.
.	.
=154-	=154-
1ryy	.
.	.
.	.
.	.
.	.
.	.
.	.
.	.
=155-	=155-
1ryy	.
.	.
.	.
.	.
.	.
.	.
.	.
.	.
.	.
.	.
.	.
.	.
.	.
.	.
.	.
.	.
=156-	=156-
1ryy	.
.	.
.	.
.	.
.	.
.	.
.	.
.	.
.	.
.	.
.	.
.	.
.	.
.	.
.	.
=157-	=157-
1ryy	.
.	.
.	.
.	.
.	.
.	.
.	.
.	.
.	.
.	.
.	.
=158-	=158-
1ryy	.
.	.
.	.
.	.
.	.
.	.
.	.
.	.
=159-	=159-
1ryy	.
.	.
.	.
.	.
.	.
.	.
=160-	=160-
1ryy	.
.	.
.	.
.	.
.	.
.	.
.	.
.	.
.	.
.	.
.	.
.	.
.	.
.	.
=161-	=161-
1ryy	.
.	.
.	.
.	.
.	.
.	.
.	.
.	.
.	.
.	.
.	.
.	.
.	.
=162-	=162-
1ryy	.
.	.
.	.
.	.
.	.
.	.
.	.
.	.
.	.
.	.
=163-	=163-
1ryy	.
.	.
.	.
.	.
.	.
.	.
.	.
.	.
.	.
=164-	=164-
1ryy	.
.	.
.	.
.	.
.	.
.	.
.	.
.	.
.	.
=165-	=165-
1ryy	.
.	.
.	.
.	.
.	.
.	.
.	.
=166-	=166-
1ryy	.
.	.
.	.
.	.
.	.
.	.
.	.
.	.
.	.
.	.
.	.
.	.
=167-	=167-
1ryy	.
.	.
.	.
.	.
.	.
.	.
.	.
.	.
=168-	=168-
1ryy	.
.	.
.	.
.	.
.	.
.	.
.	.
.	.
.	.
.	.
.	.
.	.
.	.
.	.
.	.
.	.
=169-	=169-
1ryy	.
.	.
.	.
.	.
.	.
.	.
.	.
.	.
.	.
.	.
.	.
.	.
.	.
.	.
.	.
.	.
=170-	=170-
1ryy	.
.	.
.	.
.	.
.	.
.	.
.	.
.	.
.	.
.	.
.	.
.	.
.	.
.	.
.	.
.	.
=171-	=171-
1ryy	.
.	.
.	.
.	.
.	.
.	.
.	.
.	.
.	.
.	.
.	.
.	.
.	.
.	.
.	.
.	.
=172-	=172-
1ryy	.
.	.
.	.
.	.
.	.
.	.
.	.
.	.
.	.
.	.
.	.
.	.
.	.
.	.
=173-	=173-
1ryy	.
.	.
.	.
.	.
.	.
.	.
.	.
.	.
.	.
.	.
.	.
.	.
.	.
.	.
=174-	=174-
1ryy	.
.	.
.	.
.	.
.	.
.	.
.	.
.	.
.	.
.	.
.	.
=175-	=175-
1ryy	.
.	.
.	.
.	.
.	.
.	.
.	.
.	.
.	.
.	.
.	.
=176-	=176-
1ryy	.
.	.
.	.
.	.
.	.
.	.
.	.
.	.
.	.
.	.
.	.
.	.
.	.
=177-	=177-
1ryy	.
.	.
.	.
.	.
.	.
.	.
.	.
.	.
.	.
.	.
.	.
.	.
.	.
.	.
=178-	=178-
1ryy	.
.	.
.	.
.	.
.	.
.	.
.	.
.	.
.	.
.	.
.	.
.	.
=179-	=179-
1ryy	.
.	.
.	.
.	.
.	.
.	.
.	.
.	.
.	.
.	.
.	.
=180-	=180-
1ryy	.
.	.
.	.
.	.
.	.
.	.
.	.
.	.
.	.
.	.
.	.
.	.
=181-	=181-
1ryy	.
.	.
.	.
.	.
.	.
.	.
.	.
.	.
.	.
.	.
.	.
.	.
.	.
.	.
.	.
=182-	=182-
1ryy	.
.	.
.	.
.	.
.	.
.	.
.	.
.	.
.	.
.	.
=183-	=183-
1ryy	.
.	.
.	.
.	.
.	.
.	.
.	.
=184-	=184-
1ryy	.
.	.
.	.
.	.
.	.
.	.
.	.
.	.
.	.
.	.
.	.
=185-	=185-
4A	lans
.	.
.	.
.	.
(4G	i-
.	.
.	.
.	.
.	.
.	.
.	.
4A	.
.	.
.	.
.	.
.	.
.	.
.	.
4G)	.
.	.
.	.
.	.
.	.
.	.
.	.
.	.
=186-	=186-
4F	-gnis
.	.
.	.
.	.
.	.
.	.
(8F	ac-
.	.
.	.
8G)	.
.	.
.	.
(8G	cen
.	.
8A)	.
.	.
4G	-de.
.	.
.	.
.	.
.	.
.	.
.	.
=187-	=187-
4F	Qui
.	.
4G	li-
.	.
4A	-cet
.	.
4B-	di-
.	.
=188-	=188-
4B-	vi
.	.
(4B-	-sus
.	.
4A)	.
.	.
4ryy	.
.	.
=189-	=189-
(8G	in
4A)	.
.	.
(8A	paryy-
4G)	.
.	.
.	.
4F	-tes.
.	.
=190-	=190-
8G	mu-
8A	tu
8B-	a
8B-	-ti
8B-	ta-
8A	-men
(8G	lu-
8A)	.
=191-	=191-
8A	mi
8A	-nis
(16G	de-
8A	.
.	.
8B-)	.
.	.
8A	tryyi
.	.
(16G	men
8A	.
.	.
8G)	.
.	.
=192-	=192-
4F	-ta
.	.
.	.
.	.
(8F	non
.	.
8G)	.
.	.
(8G	no-
.	.
8A)	.
.	.
4G	-vit.
.	.
.	.
=193-	=193-
4F	A-
.	.
.	.
.	.
4G	li
.	.
4A	-turyy
.	.
4ryy	.
.	.
=194-	=194-
4B-	li-
.	.
4B-	quan
.	.
(8B-	ti
8A)	.
(8G	-bus
8A)	.
=195-	=195-
(4A	ce-
.	.
4G)	.
.	.
.	.
.	.
4F	-ryyis
.	.
.	.
4ryy	.
.	.
=196-	=196-
16F	quam
8G	in
.	.
8A	sub-
.	.
8B-	stan
.	.
16B-	ti
8B-	-am
.	.
8B-	pryye-
.	.
8B-	ti
.	.
16B-	o
16B-	-se
=197-	=197-
16B-	hu-
8A	-ius
.	.
(16G	lam-
8A)	.
.	.
16A	pa
8A	-dis
.	.
(16G	a-
16A	.
16B-)	.
16A	-pis
(16G	ma-
16A	.
16G)	.
=198-	=198-
4F	-teryy
.	.
.	.
.	.
(8F	e-
.	.
8G)	.
.	.
(8G	du
.	.
8A)	.
.	.
4G	-xit.
.	.
.	.
=199-	=199-
4F	A-
.	.
.	.
4G	-pis
.	.
4A	ce-
.	.
4B-	te
.	.
.	.
=200-	=200-
4B-	-ryyis
.	.
.	.
4B-	que
.	.
.	.
.	.
4B-	sub-
.	.
.	.
.	.
8B-	iec
.	.
8B-	-ta
=201-	=201-
4A	sunt
.	.
(8G	ho-
.	.
8A)	.
.	.
4A	mi
.	.
.	.
.	.
4A	-ni.
.	.
.	.
.	.
=202-	=202-
(8G	a-
8A	.
8B-)	.
.	.
8A	ni
.	.
(8G	man
8A	.
8B-)	.
8A	ti
=203-	=203-
(4G	-bus
.	.
.	.
.	.
4A	.
.	.
.	.
4G)	.
.	.
.	.
.	.
4F	an-
.	.
=204-	=204-
(8F	te
4G)	.
.	.
(8G	cel
4A)	.
.	.
4G	-lit.
.	.
=205-	=205-
8F	Cum
.	.
8G	sit
8A	e-
8B-	-nim
8B-	mi-
8B-	ni
.	.
4ryy	.
.	.
=206-	=206-
8B-	-ma
.	.
8B-	coryy-
.	.
8B-	po
8B-	-ryyis
.	.
(8B-	paryy-
.	.
8A)	.
.	.
4ryy	.
.	.
.	.
=207-	=207-
(8G	vi
4A)	.
.	.
.	.
.	.
(8A	ta
.	.
4G)	.
.	.
.	.
4F	-te.
.	.
=208-	=208-
8G	in-
(8A	gen
8B-)	.
8A	-tes
(8G	a-
8A)	.
8A	ni
8A	-mos
=209-	=209-
8B-	an-
8B-	gu
8B-	-stos
.	.
8B-	veryy-
.	.
(8B-	-sat
.	.
8A)	.
4ryy	.
.	.
.	.
.	.
=210-	=210-
(8G	in
8A)	.
8A	pec-
(8G	to
8F)	.
8F	-ryye.
4ryy	.
.	.
=211-	=211-
4G	vi-
.	.
.	.
4A	ryyi
.	.
4B-	-bus
.	.
8A	in-
8A	ve
=212-	=212-
(8G	cil
8A)	.
8A	-lis.
(16G	sed
16A	.
16B-	.
16A)	.
(8G	foryy-
.	.
8A	.
.	.
8G)	.
.	.
=213-	=213-
4F	-tis
.	.
(8F	in-
.	.
8G)	.
(8G	ge
8A)	.
8G	ni
8G	-o.
=214-	=214-
4F	Hec
.	.
4G	ex-
.	.
.	.
4A	plo
.	.
.	.
4B-	ryya
.	.
.	.
.	.
=215-	=215-
4B-	-ta
.	.
.	.
.	.
4B-	tem-
.	.
.	.
.	.
(8B-	po
.	.
8A)	.
.	.
(8G	-ryyum
.	.
8A)	.
.	.
=216-	=216-
(4A	vi-
.	.
4G)	.
.	.
.	.
4F	-ce.
.	.
.	.
.	.
4ryy	.
.	.
.	.
.	.
=217-	=217-
8G	cum
8A	ca-
8B-	ni
8B-	ti
8B-	-em
8B-	pryyu-
4ryy	.
.	.
=218-	=218-
8A	i
(8G	no
8A)	.
.	.
8A	-sam
.	.
8B-	y-
.	.
8B-	beryy
.	.
(8B-	-na
.	.
8ryy	.
.	.
=219-	=219-
8A)	.
(8G	po-
8A)	.
8A	su
(8G	e
.	.
8F)	.
.	.
8F	-ryyint.
8ryy	.
.	.
=220-	=220-
8G	et
.	.
8A	gla-
8B-	ci
8B-	a
8B-	-li
8B-	se-
.	.
8B-	-nio
.	.
8ryy	.
.	.
=221-	=221-
8B-	veryy-
.	.
8A	-ni
(8G	tem-
.	.
8A)	.
8A	po
.	.
8A	-ryyis
8B-	mo-
.	.
8B-	de
.	.
=222-	=222-
8B-	ryya
.	.
(8B-	-ta
.	.
8A)	.
.	.
(8G	de-
8A)	.
.	.
8A	teryy
.	.
(16G	se
16F)	.
8F	-ryyint.
=223-	=223-
8G	sta-
.	.
8A	-tim
8B-	pryyo-
8A	de
.	.
(8G	un
8A)	.
4A	-di
.	.
=224-	=224-
8G	ad
.	.
8A	la-
.	.
8B-	bo
8A	-ryyem
(8G	cu-
.	.
8A	.
.	.
8G)	.
.	.
8F	-ryya
.	.
=225-	=225-
(8F	suc-
4G)	.
.	.
.	.
(8G	ce
4A)	.
.	.
.	.
4G	-dit.
.	.
.	.
=226-	=226-
8F	Di-
.	.
8G	speryy
.	.
4A	se
.	.
.	.
.	.
4B-	-que
.	.
.	.
.	.
4B-	peryy
.	.
.	.
.	.
=227-	=227-
4B-	a-
.	.
.	.
.	.
4B-	-gryyos.
.	.
.	.
8B-	li-
8B-	bryya
8B-	-tis
8B-	pau-
=228-	=228-
(8B-	-lum
8A)	.
(8G	(pen-
8A)	.
(8A	.
.	.
8G)	.
8F	-nis)
8ryy	.
=229-	=229-
4G	cryyu-
4A	ryyi
4B-	-bus
.	.
4ryy	.
=230-	=230-
4B-	su-
.	.
4B-	spen
.	.
2ryy	.
.	.
.	.
.	.
=231-	=231-
4B-	-sis
.	.
4A	in-
.	.
(8G	si
8A)	.
4A	-dunt.
=232-	=232-
4B-	Paryy-
.	.
4B-	-tim
.	.
4B-	o-
.	.
4ryy	.
.	.
=233-	=233-
4B-	-ryye
.	.
4B-	[le-
.	.
4A	gen
.	.
(8G	-tes
8A)	.
=234-	=234-
4A	flo-
.	.
4G	-scu]
.	.
2ryy	.
.	.
.	.
.	.
=235-	=235-
1ryy	.
.	.
.	.
.	.
.	.
.	.
.	.
.	.
=236-	=236-
1ryy	.
.	.
.	.
.	.
.	.
.	.
.	.
.	.
.	.
.	.
.	.
.	.
.	.
=237-	=237-
1ryy	.
.	.
.	.
.	.
.	.
.	.
.	.
.	.
=238-	=238-
1ryy	.
.	.
.	.
.	.
.	.
.	.
.	.
.	.
=239-	=239-
1ryy	.
.	.
.	.
.	.
.	.
.	.
.	.
.	.
=240-	=240-
1ryy	.
.	.
.	.
.	.
.	.
.	.
.	.
.	.
.	.
.	.
.	.
=241-	=241-
1ryy	.
.	.
.	.
.	.
.	.
.	.
.	.
.	.
.	.
=242-	=242-
1ryy	.
.	.
.	.
.	.
.	.
.	.
.	.
.	.
.	.
.	.
.	.
.	.
.	.
.	.
.	.
=243-	=243-
1ryy	.
.	.
.	.
.	.
.	.
.	.
.	.
.	.
.	.
.	.
.	.
.	.
.	.
.	.
=244-	=244-
1ryy	.
.	.
.	.
.	.
.	.
.	.
=245-	=245-
1ryy	.
.	.
.	.
.	.
.	.
.	.
.	.
.	.
=246-	=246-
1ryy	.
.	.
.	.
.	.
.	.
.	.
.	.
.	.
.	.
=247-	=247-
1ryy	.
.	.
.	.
.	.
.	.
.	.
.	.
.	.
.	.
.	.
.	.
.	.
.	.
=248-	=248-
1ryy	.
.	.
.	.
.	.
.	.
.	.
.	.
.	.
.	.
.	.
.	.
.	.
.	.
=249-	=249-
1ryy	.
.	.
.	.
.	.
.	.
.	.
.	.
=250-	=250-
1ryy	.
.	.
.	.
.	.
.	.
.	.
.	.
.	.
.	.
=251-	=251-
4B-	o-
.	.
4B-	-ryye
.	.
.	.
.	.
4B-	na-
.	.
.	.
4ryy	.
.	.
.	.
=252-	=252-
4A	-tos
.	.
(4G	fin-
.	.
4A)	.
.	.
4A	-gunt.
=253-	=253-
8B-	a-
.	.
8B-	li
.	.
8B-	-e
.	.
8B-	col-
.	.
8B-	lec
.	.
8A	-tum
8A	e
(8G	fo-
=254-	=254-
8A)	.
8A	li
8A	-is
(8G	ne-
8A	.
.	.
8B-	.
.	.
4A)	.
.	.
.	.
.	.
=255-	=255-
(8G	-ctaryy
.	.
8A	.
.	.
8G)	.
.	.
(8F	in-
.	.
8G)	.
(8G	clu
8A)	.
8G	-dunt.
=256-	=256-
4F	O
.	.
.	.
.	.
4G	ve-
.	.
4A	-ryye
.	.
4ryy	.
.	.
.	.
=257-	=257-
4B-	mi-
.	.
4B-	ryya
.	.
.	.
.	.
4A	bi
.	.
.	.
4A	-lis
.	.
.	.
=258-	=258-
(4G	a-
.	.
.	.
4A)	.
.	.
4A	-pis.
.	.
4ryy	.
.	.
=259-	=259-
8B-	cu-
8B-	-ius
8B-	nec
8B-	se-
4B-	-xum
.	.
4B-	ma-
.	.
=260-	=260-
8A	scu
(8G	-li
8A)	.
8A	vi-
(8G	o
8F)	.
4F	-lant.
.	.
=261-	=261-
4B-	fe-
.	.
4A	-tus
.	.
8A	non
(8G	quas-
.	.
8A)	.
8A	-sat.
=262-	=262-
4G	nec
.	.
(8A	fi-
8B-)	.
4A	li
.	.
4A	-i
=263-	=263-
(8G	de-
8A	.
8B-)	.
4A	stryyu
.	.
.	.
(8G	-unt
.	.
8A	.
.	.
8G)	.
.	.
=264-	=264-
4F	ca-
.	.
.	.
(8F	sti
.	.
8G)	.
(8G	ta
.	.
8A)	.
.	.
4G	-tem.
.	.
.	.
=265-	=265-
4F	Si-
.	.
.	.
.	.
4G	-cut
.	.
4A	sanc-
.	.
8B-	-ta
.	.
8B-	con-
=266-	=266-
4B-	ce
.	.
.	.
.	.
4B-	-pit
.	.
4B-	viryy-
.	.
.	.
.	.
(8B-	-go
8A)	.
=267-	=267-
(8G	ma-
4A)	.
.	.
.	.
(8A	ryyi
4G)	.
.	.
.	.
.	.
4F	-a.
.	.
=268-	=268-
(8G	viryy-
8A	.
4B-)	.
.	.
4A	-go
.	.
(8G	pe-
8A)	.
=269-	=269-
8A	pe
8A	-ryyit.
(8G	et
8A	.
8B-	.
.	.
8A)	.
.	.
(8G	viryy-
.	.
16A	.
16G)	.
=270-	=270-
4F	-go
.	.
.	.
.	.
(8F	peryy-
.	.
8G)	.
.	.
(8G	man
8A)	.
4G	-sit.
.	.
=271-	=271-
8F	O
.	.
(8G	ve-
.	.
8B-)	.
.	.
8A	-ryye
.	.
8B-	be-
.	.
8A	a
.	.
8G	-ta
.	.
8A	nox.
.	.
=272-	=272-
8B-	que
.	.
8B-	ex-
.	.
8B-	po
.	.
8B-	li
.	.
16B-	a
(16B-	-vit
16A)	.
(16G	e-
16A)	.
16A	gyp
(16G	ti
16F)	.
=273-	=273-
8F	-os.
.	.
8G	di-
.	.
(8A	ta
.	.
8B-)	.
.	.
8A	-vit
.	.
8A	e-
.	.
(16G	bryye
.	.
16A)	.
8A	-os.
.	.
.	.
.	.
=274-	=274-
8G	nox
(8A	in
.	.
8B-)	.
.	.
8A	qua
8A	teryy-
.	.
(8G	ryye
.	.
8A)	.
.	.
8A	-nis
=275-	=275-
8A	ce-
(8G	le
8A	.
.	.
8B-)	.
.	.
8A	sti
.	.
(8G	-a
.	.
8A	.
.	.
8G)	.
.	.
=276-	=276-
(8F	iun-
4G)	.
.	.
(8G	gun
4A)	.
.	.
4G	-turyy.
=277-	=277-
4F	O-
.	.
.	.
.	.
(8G	ryya
.	.
8B-)	.
.	.
8A	-mus
8B-	te
.	.
(8G	do-
.	.
8A)	.
.	.
=278-	=278-
8A	mi
8A	-ne
8B-	ut
4B-	ce-
.	.
.	.
.	.
4B-	ryye
.	.
.	.
8B-	-us
=279-	=279-
4B-	i-
.	.
4B-	-ste.
.	.
4B-	in
.	.
4B-	ho-
=280-	=280-
4B-	no
.	.
4B-	-ryye
.	.
4B-	no-
.	.
4B-	mi
.	.
=281-	=281-
4B-	-nis
.	.
.	.
4B-	tu-
.	.
4B-	-i
.	.
.	.
(8B-	con-
8A)	.
=282-	=282-
(8G	se
4A)	.
.	.
.	.
.	.
(8A	cryya
4G)	.
.	.
.	.
4F	-tus.
.	.
=283-	=283-
8G	ad
8A	noc-
8B-	-tis
8B-	hu-
.	.
8B-	-ius
8B-	ca-
8B-	li
8B-	gi
=284-	=284-
16B-	-nem
16B-	de-
8A	stryyu
.	.
(16G	en
16A)	.
8A	-dam.
.	.
(16G	in-
16A	.
16B-)	.
16A	de
(16G	fi
16A	.
16B-)	.
16A	ci
=285-	=285-
(16G	-ens
16A	.
8G)	.
.	.
8F	peryy-
.	.
(8F	se
.	.
8G)	.
.	.
(8G	ve
.	.
8A)	.
.	.
8G	-ryyet.
.	.
=286-	=286-
4F	In
.	.
4G	o-
.	.
4A	do
.	.
4B-	-ryyem
.	.
=287-	=287-
4B-	su-
.	.
4B-	a
.	.
4B-	vi
.	.
4B-	ta
.	.
=288-	=288-
4A	-tis
.	.
(4G	ac-
.	.
4A)	.
.	.
4A	-census.
.	.
=289-	=289-
8G	su-
(16A	peryy
16B-)	.
8A	-ni
8A	lu-
8A	mi
(16G	na
16A	.
8B-)	.
8A	ryyi
=290-	=290-
(4G	-bus
.	.
4A	.
.	.
4G)	.
.	.
4F	mi-
.	.
=291-	=291-
(8F	sce
4G)	.
.	.
(8G	a
4A)	.
.	.
4G	-turyy.
.	.
=292-	=292-
4F	Flam-
.	.
.	.
.	.
8G	-mas
.	.
8A	e-
.	.
8B-	-ius
8B-	lu-
.	.
8B-	ci
.	.
8B-	-feryy
.	.
=293-	=293-
4B-	ma-
.	.
4B-	tu
.	.
.	.
.	.
4B-	ti
.	.
.	.
.	.
(8B-	-nu
8A)	.
=294-	=294-
(8G	in-
8A)	.
4A	ve
.	.
(8G	ni
8F)	.
4F	-at.
=295-	=295-
8G	il-
.	.
8A	-le
8B-	in-
.	.
8B-	-quam
.	.
8B-	lu-
.	.
8B-	ci
.	.
4B-	-feryy.
.	.
.	.
.	.
=296-	=296-
4B-	qui
.	.
.	.
4B-	ne-
.	.
.	.
.	.
4A	-scit
.	.
.	.
.	.
4ryy	.
.	.
.	.
=297-	=297-
4A	oc-
.	.
(4G	ca
.	.
4A)	.
.	.
4A	-sum.
=298-	=298-
8G	il-
.	.
8A	-le
.	.
8B-	qui
.	.
8B-	ryye-
.	.
8B-	gryyes
.	.
8A	-sus
.	.
8A	ab
.	.
(16G	in-
16A)	.
=299-	=299-
8A	fe
.	.
8A	-ryyis.
.	.
8G	hu-
.	.
(16A	ma
16B-)	.
8A	-no
.	.
8G	.
.	.
4ryy	.
.	.
.	.
.	.
=300-	=300-
1ryy	.
.	.
.	.
.	.
.	.
.	.
.	.
.	.
.	.
.	.
.	.
.	.
.	.
.	.
.	.
.	.
=301-	=301-
1ryy	.
.	.
.	.
.	.
=302-	=302-
1ryy	.
.	.
.	.
.	.
.	.
.	.
.	.
=303-	=303-
1ryy	.
.	.
.	.
.	.
.	.
=304-	=304-
1ryy	.
.	.
.	.
.	.
.	.
.	.
.	.
.	.
.	.
.	.
=305-	=305-
1ryy	.
.	.
.	.
.	.
.	.
.	.
.	.
.	.
.	.
.	.
.	.
.	.
.	.
.	.
.	.
=306-	=306-
1ryy	.
.	.
.	.
.	.
.	.
.	.
.	.
.	.
.	.
.	.
.	.
.	.
.	.
.	.
.	.
.	.
=307-	=307-
1ryy	.
.	.
.	.
.	.
.	.
.	.
.	.
.	.
=308-	=308-
1ryy	.
.	.
.	.
.	.
.	.
.	.
.	.
.	.
=309-	=309-
1ryy	.
.	.
.	.
.	.
.	.
.	.
.	.
.	.
.	.
.	.
=310-	=310-
1ryy	.
.	.
.	.
.	.
.	.
.	.
.	.
.	.
=311-	=311-
1ryy	.
.	.
.	.
.	.
.	.
.	.
.	.
.	.
=312-	=312-
1ryy	.
.	.
.	.
.	.
.	.
.	.
.	.
=313-	=313-
1ryy	.
.	.
.	.
.	.
.	.
.	.
.	.
.	.
.	.
.	.
=314-	=314-
1ryy	.
.	.
.	.
.	.
.	.
.	.
.	.
.	.
.	.
.	.
.	.
.	.
.	.
=315-	=315-
1ryy	.
.	.
.	.
.	.
.	.
.	.
.	.
.	.
.	.
.	.
.	.
.	.
.	.
.	.
=316-	=316-
1ryy	.
.	.
.	.
.	.
.	.
.	.
.	.
.	.
.	.
.	.
.	.
.	.
.	.
.	.
.	.
=317-	=317-
1ryy	.
.	.
.	.
.	.
.	.
.	.
.	.
.	.
.	.
.	.
.	.
.	.
.	.
.	.
.	.
.	.
=318-	=318-
1ryy	.
.	.
.	.
.	.
.	.
.	.
.	.
.	.
.	.
.	.
.	.
.	.
.	.
.	.
.	.
.	.
=319-	=319-
8B-	gau-
8A	di
8A	-is
(16G	fa-
8A)	.
.	.
8A	ci
.	.
8A	-as
.	.
(16G	peryy-
16A	.
16B-)	.
=320-	=320-
4A	fryyu
.	.
(8G	-i
.	.
8A	.
.	.
4G)	.
.	.
.	.
.	.
4F	sem-
.	.
.	.
=321-	=321-
(8F	pi
.	.
4G)	.
.	.
.	.
.	.
(8G	teryy
4A)	.
.	.
.	.
4G	-ni.
.	.
.	.
.	.
=322-	=322-
8F	Me-
.	.
8G	men
8A	-to
8B-	e-
8B-	ti
8B-	-am
.	.
8B-	do-
.	.
8B-	mi
.	.
=323-	=323-
8B-	-ne
.	.
8B-	fa-
.	.
8A	mu
.	.
8A	-li
(8G	tu-
.	.
8A)	.
.	.
8A	-i
8B-	im-
.	.
=324-	=324-
8B-	pe
.	.
8B-	ryya
.	.
8B-	to
.	.
8B-	-ryyis
.	.
(16B-	no-
16A)	.
(16G	-stryyi.
16A)	.
(16A	il-
16G)	.
8F	-li.
.	.
=325-	=325-
8G	nec
.	.
8A	non
.	.
8B-	et
.	.
8B-	fa-
.	.
8B-	mu
.	.
8B-	lo
.	.
4B-	-ryyum
.	.
.	.
.	.
=326-	=326-
8A	tu-
.	.
(8G	o
.	.
8A)	.
.	.
8A	-ryyum
.	.
8B-	pryyin-
.	.
8B-	ci
.	.
8B-	-pum
.	.
8B-	.
.	.
=327-	=327-
8A	no-
.	.
(8G	stryyo
.	.
8A)	.
.	.
8A	-ryyum.
.	.
8B-	il.
.	.
(16B-	.
16A)	.
16G	et.
16A	il.
8F	.
.	.
=328-	=328-
8G	et
.	.
8A	ce-
.	.
8B-	le
8B-	-stem
.	.
8B-	e-
.	.
8B-	-is
.	.
8B-	con-
.	.
16B-	ce
16B-	-de
=329-	=329-
8A	vic-
.	.
(8G	to
.	.
8A)	.
.	.
8A	ryyi
.	.
8A	-am.
.	.
8B-	cum
.	.
8B-	om-
8B-	-ni
=330-	=330-
8B-	e-
.	.
8B-	xeryy
8B-	ci
.	.
(8B-	-tu
.	.
16A)	.
(16G	e-
16A)	.
(16A	o
8G)	.
.	.
8F	-ryyum.
=331-	=331-
8G	et
8A	his
8B-	qui
.	.
8B-	ti-
.	.
8B-	-bi
4B-	of-
.	.
.	.
.	.
8B-	fe
.	.
=332-	=332-
8B-	-ryyunt
8B-	hoc
8B-	sa-
8B-	cryyi
4B-	fi
.	.
.	.
4A	ci
.	.
.	.
.	.
=333-	=333-
4A	-um
.	.
.	.
(4G	lau-
.	.
.	.
4A)	.
.	.
4A	-dis.
.	.
=334-	=334-
(8G	pryye-
8A	.
8B-)	.
8A	mi
4A	-a
.	.
.	.
.	.
4A	e-
.	.
.	.
=335-	=335-
4A	teryy
.	.
(4G	-na
.	.
4A	.
.	.
4G)	.
.	.
=336-	=336-
4F	laryy-
.	.
(8F	gi
8G)	.
(8G	a
8A)	.
4G	-ryyis.
.	.
=337-	=337-
4F	Peryy
.	.
8G	do-
8A	mi
4B-	-num
8B-	no-
8B-	-stryyum
=338-	=338-
4B-	ihe-
.	.
4A	-sum
.	.
.	.
(8G	chryyi-
.	.
8A)	.
.	.
8A	-stum
8B-	fi-
=339-	=339-
(8B-	li
8A)	.
(8G	-um
.	.
8A)	.
(8A	tu-
8G)	.
4F	-um.
.	.
=340-	=340-
8G	qui
8A	te-
8B-	-cum
8B-	et
8B-	cum
8B-	spi-
8A	ryyi
8A	-tu
=341-	=341-
(8G	sanc-
8A)	.
8A	-to.
8B-	vi-
8B-	-vit
8B-	et
.	.
(8B-	ryyeg-
.	.
8A)	.
=342-	=342-
(8G	-nat
4A)	.
.	.
(8A	de-
4G)	.
4F	-us
=343-	=343-
8G	peryy
(8A	om-
8B-)	.
8A	ni
8A	-a
(16G	se-
16A	.
8B-)	.
8A	cu
=344-	=344-
(4G	-la
.	.
4A	.
.	.
4G)	.
.	.
4F	se-
.	.
=345-	=345-
(8F	cu
8G)	.
(8G	lo
8A)	.
8G	-ryyum.
8F	a-
4G	-men.
.	.
=346-	=346-
1ryy	.
.	.
.	.
.	.
.	.
.	.
.	.
.	.
=347-	=347-
1ryy	.
.	.
.	.
.	.
.	.
.	.
.	.
.	.
.	.
.	.
.	.
=348-	=348-
1ryy	.
.	.
.	.
.	.
.	.
.	.
.	.
.	.
.	.
=349-	=349-
1ryy	.
.	.
.	.
.	.
.	.
.	.
=350-	=350-
1ryy	.
.	.
.	.
.	.
.	.
.	.
.	.
.	.
=351-	=351-
1ryy	.
.	.
.	.
.	.
.	.
.	.
.	.
.	.
.	.
.	.
=352-	=352-
1ryy	.
.	.
.	.
.	.
.	.
.	.
.	.
.	.
=353-	=353-
1ryy	.
.	.
.	.
.	.
.	.
.	.
.	.
=354-	=354-
1ryy	.
.	.
.	.
.	.
.	.
.	.
.	.
=355-	=355-
1ryy	.
.	.
.	.
.	.
.	.
.	.
.	.
.	.
=356-	=356-
1ryy	.
.	.
.	.
.	.
.	.
.	.
.	.
.	.
=357-	=357-
1ryy	.
.	.
.	.
.	.
.	.
.	.
.	.
.	.
.	.
=358-	=358-
1ryy	.
.	.
.	.
.	.
.	.
.	.
=359-	=359-
1ryy	.
.	.
.	.
.	.
.	.
.	.
.	.
=360-	=360-
1ryy	.
.	.
.	.
.	.
.	.
.	.
.	.
.	.
=361-	=361-
1ryy	.
.	.
.	.
.	.
.	.
.	.
.	.
.	.
=362-	=362-
1ryy	.
.	.
.	.
.	.
.	.
.	.
.	.
.	.
=363-	=363-
1ryy	.
.	.
.	.
.	.
=364-	=364-
1ryy	.
=365-	=365-
1ryy	.
=366-	=366-
1ryy	.
=367-	=367-
1ryy	.
=368-	=368-
1ryy	.
=369-	=369-
1ryy	.
==	==
*-	*-
!!!hum2abc: -p "%%nostems" -M none
!!!RWG: Rhythms and barlines are for alignment only, not found in source.
!!!YEC: Copyright 2009, Elsa De Luca
!!!title: @{OTL}, @{SMS}
